dist/icons/services/marketing-strategy.svg

<svg width="56" height="80" viewBox="0 0 56 80" fill="none" xmlns="http://www.w3.org/2000/svg">
<path d="M27.9381 0C20.5289 0 13.4231 2.9433 8.18402 8.18241C2.94491 13.4215 0.00161213 20.5273 0.00161213 27.9365C-0.0426553 31.9968 0.825249 36.0152 2.54129 39.6952C3.39151 41.2615 4.34162 42.7715 5.38574 44.2159C7.42019 46.943 9.12514 49.9011 10.4651 53.0285C11.3871 56.3389 11.8905 59.7517 11.9635 63.1873H17.0429C16.9649 59.1552 16.3587 55.1507 15.2397 51.2762C13.7738 47.7399 11.8804 44.3965 9.60161 41.3206C8.6799 40.0673 7.8319 38.7614 7.06193 37.4095C5.69739 34.4231 5.02044 31.1685 5.08098 27.8857C5.08098 21.8 7.4985 15.9636 11.8017 11.6604C16.1049 7.3572 21.9413 4.93968 28.027 4.93968C34.1127 4.93968 39.9491 7.3572 44.2523 11.6604C48.5555 15.9636 50.973 21.8 50.973 27.8857C50.9777 31.2013 50.231 34.4748 48.7889 37.4603C48.0189 38.8122 47.1709 40.1181 46.2492 41.3714C43.9829 44.4327 42.0981 47.7588 40.6365 51.2762C39.5132 55.1671 38.9069 59.1889 38.8334 63.2381H43.9127C43.9857 59.8025 44.4891 56.3897 45.4111 53.0793C46.7511 49.9519 48.456 46.9938 50.4905 44.2666C51.5387 42.7897 52.4889 41.2457 53.3349 39.6444C55.051 35.9644 55.9189 31.946 55.8746 27.8857C55.8612 20.4853 52.9119 13.3926 47.6743 8.16444C42.4366 2.93632 35.3385 -1.22321e-05 27.9381 0Z" fill="#C3B18D"/>
<path d="M29.5382 33.6764C29.1573 33.2964 28.6413 33.083 28.1033 33.083C27.5653 33.083 27.0492 33.2964 26.6684 33.6764L19.0493 41.2954L26.3128 49.2446V63.3144H30.4779V47.6192L24.789 41.397L29.589 36.597C29.7816 36.4041 29.9334 36.1745 30.0354 35.9218C30.1375 35.6691 30.1876 35.3984 30.1829 35.1259C30.1781 34.8534 30.1186 34.5846 30.0079 34.3356C29.8971 34.0866 29.7374 33.8624 29.5382 33.6764Z" fill="#C3B18D"/>
<path d="M42.8208 68.3174H12.9795C12.4406 68.3174 11.9239 68.5314 11.5428 68.9125C11.1618 69.2935 10.9478 69.8103 10.9478 70.3491C10.9478 70.888 11.1618 71.4048 11.5428 71.7858C11.9239 72.1668 12.4406 72.3809 12.9795 72.3809H42.8208C43.3596 72.3809 43.8764 72.1668 44.2574 71.7858C44.6385 71.4048 44.8525 70.888 44.8525 70.3491C44.8525 69.8103 44.6385 69.2935 44.2574 68.9125C43.8764 68.5314 43.3596 68.3174 42.8208 68.3174Z" fill="#C3B18D"/>
<path d="M38.0968 75.9365H17.7793C17.2405 75.9365 16.7237 76.1506 16.3426 76.5316C15.9616 76.9126 15.7476 77.4294 15.7476 77.9683C15.7476 78.5071 15.9616 79.0239 16.3426 79.4049C16.7237 79.786 17.2405 80 17.7793 80H38.0968C38.6356 80 39.1524 79.786 39.5334 79.4049C39.9144 79.0239 40.1285 78.5071 40.1285 77.9683C40.1285 77.4294 39.9144 76.9126 39.5334 76.5316C39.1524 76.1506 38.6356 75.9365 38.0968 75.9365Z" fill="#C3B18D"/>
<path d="M26.2114 21.9429L19.2781 28.8763C18.9279 29.2627 18.7397 29.7691 18.7526 30.2905C18.7654 30.8119 18.9783 31.3084 19.347 31.6771C19.7158 32.0459 20.2123 32.2588 20.7337 32.2716C21.2551 32.2844 21.7614 32.0963 22.1479 31.7461L29.0813 24.762C29.2852 24.5772 29.4495 24.3529 29.5641 24.1026C29.6788 23.8524 29.7414 23.5815 29.7482 23.3064C29.7549 23.0312 29.7057 22.7576 29.6035 22.502C29.5014 22.2464 29.3483 22.0143 29.1537 21.8197C28.9591 21.6251 28.7269 21.472 28.4714 21.3698C28.2158 21.2677 27.9422 21.2185 27.667 21.2252C27.3919 21.232 27.121 21.2946 26.8708 21.4092C26.6205 21.5239 26.3962 21.6882 26.2114 21.8921V21.9429Z" fill="#C3B18D"/>
</svg>

<svg width="56" height="80" fill="none" xmlns="http://www.w3.org/2000/svg">
    <path d="M27.938 0A27.936 27.936 0 0 0 .002 27.936a27.123 27.123 0 0 0 2.54 11.76c.85 1.566 1.8 3.076 2.844 4.52a43.174 43.174 0 0 1 5.08 8.813 41.118 41.118 0 0 1 1.498 10.158h5.079a46.144 46.144 0 0 0-1.803-11.91 46.882 46.882 0 0 0-5.638-9.956 40.092 40.092 0 0 1-2.54-3.911 21.943 21.943 0 0 1-1.981-9.524 22.946 22.946 0 1 1 45.892 0 21.941 21.941 0 0 1-2.184 9.574 40.1 40.1 0 0 1-2.54 3.911 46.88 46.88 0 0 0-5.613 9.905 46.145 46.145 0 0 0-1.803 11.962h5.08A41.118 41.118 0 0 1 45.41 53.08a43.177 43.177 0 0 1 5.08-8.812 41.402 41.402 0 0 0 2.844-4.623 27.122 27.122 0 0 0 2.54-11.758A27.937 27.937 0 0 0 27.938 0Z" fill="#C3B18D"/>
    <path d="M29.538 33.676a2.032 2.032 0 0 0-2.87 0l-7.619 7.62 7.264 7.949v14.07h4.165V47.618l-5.689-6.222 4.8-4.8a2.032 2.032 0 0 0-.05-2.92ZM42.82 68.317H12.98a2.032 2.032 0 1 0 0 4.064h29.84a2.032 2.032 0 0 0 0-4.064ZM38.097 75.936H17.779a2.032 2.032 0 0 0 0 4.064h20.318a2.031 2.031 0 1 0 0-4.064ZM26.211 21.943l-6.933 6.933a2.031 2.031 0 0 0 2.87 2.87l6.933-6.984a2.031 2.031 0 1 0-2.87-2.87v.05Z" fill="#C3B18D"/>
</svg>
